X:29
T:The squire & fair maid - hoskins
C:Taken down from J. Hoskins, by H.Fl.S. 1888.
%%VWML:SBG-1-1-128-0
F:http://www.vwml.org/record/SBG/1/1/128
Z:Original Sibleius Transcription by Martin and Shan Graebe
L:1/4
M:4/4
I:linebreak $
K:C
d | c B c d | e B c/B/ G | B B e d | B2 z G | B B c d | e d B G |$ d d d/c/ A | G2 z d | 
g d d/e/ d | g e d c | B B c/e/ c | B2 z G | B B c d |$ e e d G/A/ | d d d/c/ A | G2 z || 
"^chorus" d | g d d d | g d d B |$ c c e e | B2 z G | B B c c | d e B G | d d d/c/ A | G2 z|] 
T:The squire & fair maid - smith
T:Taken down from H. Smith, Two Bridges by H.Fl.S. 1890.
L:1/8
M:6/8
I:linebreak $
K:C
G | c2 B ABc | d2 B G2 G | ceg gfe | e3 d2 e/f/ | gag gfe |$ g2 e c2 G | c2 d e2 e | edc A2 c | 
G2 c c2 d | efa g2 B | (c3 c2)  |] 


